svg/desktop_classic.svg

<svg xmlns="http://www.w3.org/2000/svg" viewBox="0 0 24 24"><path d="M6 2c-1.11 0-2 .89-2 2v8c0 1.11.89 2 2 2h12c1.11 0 2-.89 2-2V4c0-1.11-.89-2-2-2zm0 2h12v8H6zM4 15c-1.11 0-2 .89-2 2v3c0 1.11.89 2 2 2h16c1.11 0 2-.89 2-2v-3c0-1.11-.89-2-2-2zm4 2h12v3H8zm1 .75v1.5h4v-1.5zm6 0v1.5h4v-1.5z"/></svg>

<?xml version="1.0" encoding="UTF-8"?><!DOCTYPE svg PUBLIC "-//W3C//DTD SVG 1.1//EN" "http://www.w3.org/Graphics/SVG/1.1/DTD/svg11.dtd"><svg xmlns="http://www.w3.org/2000/svg" xmlns:xlink="http://www.w3.org/1999/xlink" version="1.1" id="mdi-desktop-classic" width="24" height="24" viewBox="0 0 24 24"><path d="M6,2C4.89,2 4,2.89 4,4V12C4,13.11 4.89,14 6,14H18C19.11,14 20,13.11 20,12V4C20,2.89 19.11,2 18,2H6M6,4H18V12H6V4M4,15C2.89,15 2,15.89 2,17V20C2,21.11 2.89,22 4,22H20C21.11,22 22,21.11 22,20V17C22,15.89 21.11,15 20,15H4M8,17H20V20H8V17M9,17.75V19.25H13V17.75H9M15,17.75V19.25H19V17.75H15Z" /></svg>
